public/stat.svg

<svg width="58" height="67" viewBox="0 0 58 67" fill="none" xmlns="http://www.w3.org/2000/svg">
<path d="M44.3304 51.9013L56.8363 44.9863L44.4363 37.5293L31.2773 44.3693L44.3304 51.9013Z" fill="#2B1F51"/>
<path d="M44.3333 52.4012C44.2456 52.4009 44.1594 52.3778 44.0833 52.3342L31.0313 44.8032C30.9536 44.7583 30.8894 44.6934 30.8454 44.6152C30.8015 44.537 30.7793 44.4484 30.7814 44.3588C30.7834 44.2691 30.8096 44.1816 30.8571 44.1055C30.9045 44.0294 30.9716 43.9674 31.0513 43.9262L44.2103 37.0852C44.2862 37.0459 44.3709 37.0268 44.4564 37.0296C44.5418 37.0324 44.6251 37.057 44.6983 37.1012L57.0983 44.5582C57.1735 44.6035 57.2355 44.6677 57.278 44.7446C57.3205 44.8214 57.342 44.908 57.3403 44.9958C57.3387 45.0836 57.314 45.1694 57.2687 45.2446C57.2234 45.3198 57.1591 45.3817 57.0823 45.4242L44.5763 52.3382C44.5019 52.3795 44.4183 52.4012 44.3333 52.4012ZM32.3213 44.3932L44.3383 51.3272L55.8383 44.9682L44.4223 38.1022L32.3213 44.3932Z" fill="#2B1F51"/>
<path d="M47.9224 12.619L39.6894 17.404L31.4023 12.619L39.6353 7.83398L47.9224 12.619Z" fill="white"/>
<path d="M39.6963 17.9039C39.6086 17.9036 39.5224 17.8805 39.4463 17.8369L31.1593 13.0529C31.0835 13.009 31.0206 12.9459 30.9769 12.87C30.9332 12.7941 30.9102 12.708 30.9102 12.6204C30.9102 12.5328 30.9332 12.4468 30.9769 12.3709C31.0206 12.295 31.0835 12.2319 31.1593 12.1879L39.3933 7.40292C39.4693 7.35904 39.5555 7.33594 39.6433 7.33594C39.731 7.33594 39.8173 7.35904 39.8933 7.40292L48.1793 12.1879C48.2551 12.2319 48.3179 12.295 48.3617 12.3709C48.4054 12.4468 48.4284 12.5328 48.4284 12.6204C48.4284 12.708 48.4054 12.7941 48.3617 12.87C48.3179 12.9459 48.2551 13.009 48.1793 13.0529L39.9463 17.8369C39.8703 17.8808 39.7841 17.9039 39.6963 17.9039ZM32.4073 12.6179L39.6953 16.8259L46.9323 12.6259L39.6443 8.41792L32.4073 12.6179Z" fill="#2B1F51"/>
<path d="M47.9214 12.6211L47.7994 44.3711L39.5664 49.1561L39.6884 17.4061L47.9214 12.6211Z" fill="#D4E6FC"/>
<path d="M39.5664 49.6547C39.4787 49.6544 39.3925 49.6313 39.3164 49.5877C39.2401 49.5436 39.1768 49.4802 39.1329 49.4038C39.089 49.3274 39.0661 49.2408 39.0664 49.1527L39.1884 17.4027C39.1888 17.3155 39.212 17.23 39.2557 17.1545C39.2994 17.0791 39.362 17.0164 39.4374 16.9727L47.6704 12.1887C47.7465 12.1445 47.8329 12.1212 47.9209 12.1211C48.0089 12.121 48.0954 12.1442 48.1716 12.1882C48.2478 12.2322 48.311 12.2956 48.3549 12.3719C48.3987 12.4482 48.4217 12.5347 48.4214 12.6227L48.3004 44.3727C48.3 44.4598 48.2768 44.5454 48.2331 44.6208C48.1894 44.6962 48.1268 44.7589 48.0514 44.8027L39.8174 49.5867C39.7412 49.6311 39.6546 49.6545 39.5664 49.6547ZM40.1874 17.6927L40.0694 48.2837L47.3014 44.0837L47.4184 13.4927L40.1874 17.6927Z" fill="#2B1F51"/>
<path d="M39.6942 17.4031L39.5722 49.1531L31.2852 44.3691L31.4062 12.6191L39.6942 17.4031Z" fill="white"/>
<path d="M39.5682 49.6531C39.4805 49.6528 39.3944 49.6297 39.3182 49.5861L31.0313 44.8021C30.955 44.7581 30.8916 44.6946 30.8477 44.6183C30.8038 44.5419 30.7809 44.4552 30.7813 44.3671L30.9032 12.6171C30.9036 12.5295 30.927 12.4436 30.971 12.3678C31.015 12.2921 31.0782 12.2293 31.1541 12.1856C31.2301 12.142 31.3162 12.1191 31.4038 12.1191C31.4913 12.1192 31.5774 12.1423 31.6532 12.1861L39.9403 16.9701C40.0166 17.0142 40.0799 17.0776 40.1238 17.154C40.1677 17.2304 40.1906 17.317 40.1903 17.4051L40.0682 49.1551C40.0678 49.2426 40.0444 49.3285 40.0003 49.4042C39.9563 49.4798 39.8931 49.5425 39.8172 49.5861C39.7416 49.6301 39.6557 49.6533 39.5682 49.6531ZM31.7822 44.0811L39.0712 48.2891L39.1892 17.6891L31.8952 13.4791L31.7822 44.0811Z" fill="#2B1F51"/>
<path d="M19.3186 65.7314L31.8246 58.8164L19.4246 51.3594L6.26562 58.1994L19.3186 65.7314Z" fill="#2B1F51"/>
<path d="M19.3205 66.2313C19.2328 66.2313 19.1465 66.2082 19.0705 66.1643L6.01954 58.6323C5.94185 58.5874 5.87765 58.5225 5.83369 58.4443C5.78972 58.3661 5.76762 58.2775 5.76966 58.1878C5.77171 58.0982 5.79783 58.0107 5.84531 57.9346C5.8928 57.8585 5.9599 57.7965 6.03956 57.7553L19.1975 50.9153C19.2735 50.876 19.3582 50.8568 19.4436 50.8596C19.5291 50.8624 19.6124 50.8871 19.6856 50.9313L32.0855 58.3873C32.1608 58.4325 32.2227 58.4968 32.2652 58.5736C32.3077 58.6505 32.3292 58.7371 32.3276 58.8249C32.326 58.9127 32.3013 58.9985 32.256 59.0737C32.2107 59.1489 32.1464 59.2108 32.0696 59.2533L19.5635 66.1693C19.489 66.2099 19.4054 66.2313 19.3205 66.2313ZM7.30955 58.2223L19.3255 65.1573L30.8255 58.7983L19.4096 51.9323L7.30955 58.2223Z" fill="#2B1F51"/>
<path d="M31.8264 58.8173L44.3325 51.9023L31.9324 44.4453L18.7734 51.2853L31.8264 58.8173Z" fill="#2B1F51"/>
<path d="M31.8255 59.3172C31.7377 59.3172 31.6515 59.2941 31.5755 59.2502L18.5235 51.7182C18.4458 51.6733 18.3816 51.6084 18.3376 51.5302C18.2937 51.452 18.2715 51.3635 18.2736 51.2738C18.2756 51.1841 18.3018 51.0966 18.3493 51.0205C18.3967 50.9444 18.4638 50.8825 18.5435 50.8412L31.7025 44.0012C31.7784 43.9619 31.8631 43.9428 31.9486 43.9456C32.034 43.9484 32.1173 43.973 32.1905 44.0172L44.5905 51.4732C44.6657 51.5185 44.7277 51.5827 44.7701 51.6596C44.8126 51.7364 44.8341 51.823 44.8325 51.9108C44.8309 51.9986 44.8062 52.0844 44.7609 52.1596C44.7156 52.2348 44.6513 52.2967 44.5745 52.3392L32.0685 59.2542C31.9942 59.2955 31.9105 59.3172 31.8255 59.3172ZM19.8135 51.3082L31.8305 58.2432L43.3305 51.8842L31.9145 45.0182L19.8135 51.3082Z" fill="#2B1F51"/>
<path d="M35.4145 31.2957L27.1815 36.0807L18.8945 31.2967L27.1275 26.5117L35.4145 31.2957Z" fill="white"/>
<path d="M27.1806 36.5797C27.0929 36.5793 27.0068 36.5562 26.9306 36.5127L18.6436 31.7277C18.5679 31.6838 18.505 31.6207 18.4612 31.5448C18.4175 31.4689 18.3945 31.3828 18.3945 31.2952C18.3945 31.2076 18.4175 31.1216 18.4612 31.0457C18.505 30.9698 18.5679 30.9067 18.6436 30.8627L26.8776 26.0787C26.9536 26.0348 27.0399 26.0117 27.1276 26.0117C27.2154 26.0117 27.3016 26.0348 27.3776 26.0787L35.6636 30.8627C35.7394 30.9067 35.8023 30.9698 35.846 31.0457C35.8897 31.1216 35.9128 31.2076 35.9128 31.2952C35.9128 31.3828 35.8897 31.4689 35.846 31.5448C35.8023 31.6207 35.7394 31.6838 35.6636 31.7277L27.4306 36.5127C27.3546 36.5566 27.2684 36.5797 27.1806 36.5797ZM19.8916 31.2937L27.1796 35.5017L34.4166 31.2957L27.1286 27.0877L19.8916 31.2937Z" fill="#2B1F51"/>
<path d="M35.4175 31.2949L35.2955 51.2789L27.0625 56.0639L27.1835 36.0759L35.4175 31.2949Z" fill="#D4E6FC"/>
<path d="M27.0625 56.5684C26.9299 56.5684 26.8027 56.5157 26.709 56.422C26.6152 56.3282 26.5625 56.201 26.5625 56.0684L26.6845 36.0804C26.6849 35.9932 26.7082 35.9077 26.7518 35.8323C26.7955 35.7568 26.8581 35.6942 26.9335 35.6504L35.1665 30.8664C35.2427 30.8222 35.3292 30.7989 35.4173 30.7988C35.5054 30.7988 35.5919 30.822 35.6681 30.8662C35.7443 30.9103 35.8076 30.9738 35.8513 31.0502C35.8951 31.1267 35.918 31.2133 35.9175 31.3014L35.7965 51.2894C35.7959 51.3764 35.7726 51.4617 35.729 51.537C35.6853 51.6122 35.6228 51.6747 35.5475 51.7184L27.3135 56.5034C27.237 56.5468 27.1504 56.5692 27.0625 56.5684ZM27.6825 36.3684L27.5675 55.1964L34.7985 50.9964L34.9125 32.1684L27.6825 36.3684Z" fill="#2B1F51"/>
<path d="M27.1814 36.078L27.0604 56.066L18.7734 51.281L18.8944 31.293L27.1814 36.078Z" fill="white"/>
<path d="M27.0604 56.5679C26.9727 56.5676 26.8866 56.5445 26.8104 56.5009L18.5234 51.7159C18.447 51.6718 18.3836 51.6082 18.3397 51.5316C18.2958 51.455 18.2729 51.3682 18.2734 51.2799L18.3955 31.2929C18.3958 31.2053 18.4191 31.1193 18.4632 31.0436C18.5072 30.9679 18.5704 30.9051 18.6463 30.8614C18.7223 30.8178 18.8083 30.7948 18.8959 30.7949C18.9835 30.795 19.0696 30.8181 19.1455 30.8619L27.4324 35.6459C27.509 35.6901 27.5725 35.7539 27.6165 35.8307C27.6604 35.9074 27.6831 35.9945 27.6824 36.0829L27.5604 56.0709C27.5604 56.2035 27.5078 56.3307 27.414 56.4245C27.3202 56.5182 27.193 56.5709 27.0604 56.5709V56.5679ZM19.2755 50.9959L26.5654 55.2049L26.6805 36.3669L19.3905 32.1579L19.2755 50.9959Z" fill="#2B1F51"/>
<path d="M22.9115 47.8787L14.6785 52.6637L6.39453 47.8787L14.6275 43.0938L22.9115 47.8787Z" fill="white"/>
<path d="M14.6777 53.1647C14.59 53.1644 14.5038 53.1413 14.4277 53.0977L6.13974 48.3127C6.06397 48.2687 6.00109 48.2056 5.95737 48.1297C5.91365 48.0538 5.89062 47.9678 5.89062 47.8802C5.89062 47.7926 5.91365 47.7065 5.95737 47.6306C6.00109 47.5547 6.06397 47.4916 6.13974 47.4477L14.3737 42.6627C14.4498 42.6188 14.536 42.5957 14.6237 42.5957C14.7115 42.5957 14.7977 42.6188 14.8737 42.6627L23.1597 47.4477C23.2355 47.4916 23.2984 47.5547 23.3421 47.6306C23.3859 47.7065 23.4088 47.7926 23.4088 47.8802C23.4088 47.9678 23.3859 48.0538 23.3421 48.1297C23.2984 48.2056 23.2355 48.2687 23.1597 48.3127L14.9277 53.0977C14.8517 53.1416 14.7655 53.1647 14.6777 53.1647ZM7.38776 47.8777L14.6768 52.0867L21.9128 47.8807L14.6248 43.6727L7.38776 47.8777Z" fill="#2B1F51"/>
<path d="M22.9097 47.8809L22.7887 58.1999L14.5547 62.9809L14.6757 52.6619L22.9097 47.8809Z" fill="#D4E6FC"/>
<path d="M14.5547 63.4805C14.4664 63.4801 14.3798 63.4563 14.3037 63.4115C14.2273 63.3672 14.164 63.3034 14.1203 63.2266C14.0765 63.1499 14.0539 63.0629 14.0547 62.9745L14.1777 52.6555C14.1786 52.5689 14.2021 52.484 14.2457 52.4091C14.2894 52.3342 14.3518 52.272 14.4267 52.2285L22.6587 47.4445C22.7351 47.4002 22.8219 47.3769 22.9102 47.377C22.9986 47.377 23.0853 47.4005 23.1616 47.445C23.238 47.4895 23.3011 47.5535 23.3447 47.6303C23.3883 47.7072 23.4107 47.7942 23.4097 47.8825L23.2887 58.2015C23.2876 58.288 23.2641 58.3727 23.2204 58.4474C23.1768 58.5221 23.1145 58.5841 23.0397 58.6275L14.8057 63.4125C14.7295 63.4569 14.6429 63.4804 14.5547 63.4805ZM15.1747 52.9505L15.0657 62.1055L22.2917 57.9055L22.3987 48.7505L15.1747 52.9505Z" fill="#2B1F51"/>
<path d="M14.6776 52.6629L14.5565 62.9789L6.26953 58.1939L6.39453 47.8789L14.6776 52.6629Z" fill="white"/>
<path d="M14.5556 63.479C14.4679 63.4785 14.3818 63.4554 14.3056 63.412L6.01957 58.627C5.94267 58.5826 5.87899 58.5186 5.83506 58.4414C5.79112 58.3643 5.76851 58.2768 5.76957 58.188L5.89057 47.869C5.89161 47.7817 5.91547 47.6963 5.95978 47.6211C6.00409 47.5459 6.06733 47.4837 6.14316 47.4405C6.219 47.3973 6.3048 47.3747 6.39206 47.375C6.47933 47.3753 6.565 47.3984 6.64057 47.442L14.9286 52.227C15.0053 52.2713 15.0689 52.3352 15.1128 52.4122C15.1568 52.4891 15.1794 52.5764 15.1786 52.665L15.0556 62.985C15.0547 63.0723 15.0309 63.1578 14.9867 63.2331C14.9425 63.3083 14.8794 63.3707 14.8036 63.414C14.7278 63.4564 14.6424 63.4788 14.5556 63.479ZM6.77259 57.908L14.0656 62.119L14.1746 52.946L6.88157 48.735L6.77259 57.908Z" fill="#2B1F51"/>
<path d="M0.499905 39.7212C0.40097 39.7212 0.304248 39.6918 0.222012 39.6368C0.139777 39.5818 0.0757238 39.5037 0.0379304 39.4122C0.00013689 39.3208 -0.00969688 39.2202 0.0097016 39.1232C0.0291001 39.0262 0.0768623 38.9371 0.146909 38.8672L34.1769 0.767228C34.2235 0.720805 34.2787 0.684009 34.3395 0.658936C34.4002 0.633863 34.4654 0.621001 34.5311 0.621094C34.5968 0.621187 34.6619 0.63424 34.7226 0.659485C34.7833 0.68473 34.8385 0.721681 34.8849 0.768235C34.9313 0.814788 34.9681 0.870027 34.9932 0.930802C35.0183 0.991577 35.0311 1.05669 35.031 1.12244C35.0309 1.18818 35.0179 1.25326 34.9926 1.31397C34.9674 1.37467 34.9305 1.4298 34.8839 1.47623L0.853879 39.5762C0.759765 39.6696 0.632461 39.7217 0.499905 39.7212Z" fill="#2B1F51"/>
<path d="M34.0284 6.03625C33.9917 6.03616 33.9552 6.03214 33.9194 6.02426C33.855 6.00996 33.794 5.98307 33.7401 5.94512C33.6861 5.90718 33.6402 5.85893 33.605 5.80316C33.5698 5.74738 33.5459 5.68519 33.5348 5.62016C33.5237 5.55513 33.5256 5.48855 33.5404 5.42425L34.4964 1.14526L30.0314 2.06726C29.9655 2.08485 29.8968 2.08879 29.8293 2.07884C29.7619 2.06889 29.6972 2.04527 29.6393 2.00941C29.5813 1.97355 29.5313 1.92622 29.4923 1.87033C29.4533 1.81443 29.4261 1.75114 29.4125 1.68437C29.3988 1.61759 29.399 1.54874 29.4129 1.48202C29.4268 1.4153 29.4542 1.35213 29.4935 1.2964C29.5327 1.24066 29.5829 1.19353 29.641 1.15791C29.6991 1.12229 29.7639 1.09893 29.8314 1.08926L35.0544 0.0102644C35.1361 -0.00847913 35.2214 -0.00561686 35.3017 0.0185804C35.382 0.0427777 35.4546 0.0874764 35.5124 0.148265C35.5711 0.20779 35.6139 0.281085 35.637 0.361445C35.6601 0.441806 35.6626 0.52666 35.6444 0.608256L34.5194 5.64225C34.4951 5.75425 34.4331 5.85451 34.3437 5.92623C34.2543 5.99796 34.143 6.03679 34.0284 6.03625Z" fill="#2B1F51"/>
</svg>

<svg xmlns="http://www.w3.org/2000/svg" width="58" height="67" fill="none" viewBox="0 0 58 67"><path fill="#2b1f51" d="m44.33 51.901 12.506-6.915-12.4-7.457-13.159 6.84z"/><path fill="#2b1f51" d="M44.333 52.401a.5.5 0 0 1-.25-.067l-13.052-7.53a.5.5 0 0 1 .02-.878l13.16-6.84a.5.5 0 0 1 .487.015l12.4 7.457a.5.5 0 0 1-.016.866l-12.506 6.914a.5.5 0 0 1-.243.063m-12.012-8.008 12.017 6.934 11.5-6.359-11.416-6.866z"/><path fill="#fff" d="m47.922 12.619-8.233 4.785-8.287-4.785 8.233-4.785z"/><path fill="#2b1f51" d="M39.696 17.904a.5.5 0 0 1-.25-.067l-8.287-4.784a.5.5 0 0 1 0-.865l8.234-4.785a.5.5 0 0 1 .5 0l8.286 4.785a.5.5 0 0 1 0 .865l-8.233 4.784a.5.5 0 0 1-.25.067m-7.289-5.286 7.288 4.208 7.237-4.2-7.288-4.208z"/><path fill="#d4e6fc" d="m47.921 12.621-.122 31.75-8.233 4.785.122-31.75z"/><path fill="#2b1f51" d="M39.566 49.655a.51.51 0 0 1-.433-.251.5.5 0 0 1-.067-.251l.122-31.75a.5.5 0 0 1 .25-.43l8.232-4.784a.5.5 0 0 1 .751.434l-.12 31.75a.5.5 0 0 1-.25.43l-8.234 4.784a.5.5 0 0 1-.25.068m.621-31.962-.118 30.59 7.232-4.2.117-30.59z"/><path fill="#fff" d="m39.694 17.403-.122 31.75-8.287-4.784.121-31.75z"/><path fill="#2b1f51" d="M39.568 49.653a.5.5 0 0 1-.25-.067l-8.287-4.784a.5.5 0 0 1-.25-.435l.122-31.75a.5.5 0 0 1 .75-.43l8.287 4.783a.5.5 0 0 1 .25.435l-.122 31.75a.5.5 0 0 1-.5.498m-7.786-5.572 7.29 4.208.117-30.6-7.294-4.21zM19.319 65.731l12.506-6.915-12.4-7.457-13.16 6.84z"/><path fill="#2b1f51" d="M19.32 66.231a.5.5 0 0 1-.25-.067L6.02 58.632a.5.5 0 0 1 .02-.877l13.158-6.84a.5.5 0 0 1 .488.016l12.4 7.456a.499.499 0 0 1-.016.866L19.564 66.17a.5.5 0 0 1-.244.062M7.31 58.222l12.016 6.935 11.5-6.359-11.416-6.866z"/><path fill="#2b1f51" d="m31.826 58.817 12.507-6.915-12.4-7.457-13.16 6.84z"/><path fill="#2b1f51" d="M31.826 59.317a.5.5 0 0 1-.25-.067l-13.053-7.532a.5.5 0 0 1 .02-.877l13.16-6.84a.5.5 0 0 1 .488.016l12.4 7.456a.499.499 0 0 1-.017.866L32.07 59.254a.5.5 0 0 1-.244.063m-12.012-8.009 12.017 6.935 11.5-6.359-11.417-6.866z"/><path fill="#fff" d="m35.415 31.296-8.233 4.785-8.287-4.784 8.233-4.785z"/><path fill="#2b1f51" d="M27.18 36.58a.5.5 0 0 1-.25-.067l-8.286-4.785a.5.5 0 0 1 0-.865l8.234-4.784a.5.5 0 0 1 .5 0l8.286 4.784a.5.5 0 0 1 0 .865l-8.233 4.785a.5.5 0 0 1-.25.067m-7.288-5.286 7.288 4.208 7.237-4.206-7.288-4.208z"/><path fill="#d4e6fc" d="m35.418 31.295-.123 19.984-8.233 4.785.121-19.988z"/><path fill="#2b1f51" d="M27.063 56.568a.5.5 0 0 1-.5-.5l.122-19.988a.5.5 0 0 1 .248-.43l8.234-4.784a.5.5 0 0 1 .75.435l-.12 19.988a.5.5 0 0 1-.25.43l-8.233 4.784a.5.5 0 0 1-.252.065m.62-20.2-.116 18.828 7.231-4.2.114-18.828z"/><path fill="#fff" d="m27.181 36.078-.12 19.988-8.288-4.785.121-19.988z"/><path fill="#2b1f51" d="M27.06 56.568a.5.5 0 0 1-.25-.067l-8.287-4.785a.5.5 0 0 1-.25-.436l.122-19.987a.5.5 0 0 1 .75-.431l8.287 4.784a.5.5 0 0 1 .25.437L27.56 56.07a.5.5 0 0 1-.5.5zm-7.784-5.572 7.29 4.209.114-18.838-7.29-4.21z"/><path fill="#fff" d="m22.912 47.879-8.233 4.785-8.284-4.785 8.233-4.785z"/><path fill="#2b1f51" d="M14.678 53.165a.5.5 0 0 1-.25-.067L6.14 48.313a.5.5 0 0 1 0-.865l8.234-4.785a.5.5 0 0 1 .5 0l8.286 4.785a.5.5 0 0 1 0 .865l-8.232 4.785a.5.5 0 0 1-.25.067m-7.29-5.287 7.289 4.209 7.236-4.206-7.288-4.208z"/><path fill="#d4e6fc" d="m22.91 47.88-.121 10.32-8.234 4.78.12-10.318z"/><path fill="#2b1f51" d="M14.555 63.48a.5.5 0 0 1-.435-.253.5.5 0 0 1-.065-.252l.123-10.32a.5.5 0 0 1 .249-.427l8.232-4.784a.5.5 0 0 1 .75.438l-.12 10.32a.5.5 0 0 1-.25.425l-8.233 4.785a.5.5 0 0 1-.251.069m.62-10.53-.11 9.155 7.227-4.2.107-9.154z"/><path fill="#fff" d="m14.678 52.663-.122 10.316-8.286-4.785.125-10.315z"/><path fill="#2b1f51" d="M14.556 63.479a.5.5 0 0 1-.25-.067L6.02 58.627a.5.5 0 0 1-.25-.439l.12-10.319a.5.5 0 0 1 .75-.427l8.289 4.785a.5.5 0 0 1 .25.438l-.123 10.32a.5.5 0 0 1-.5.494m-7.783-5.571 7.293 4.211.109-9.173-7.293-4.211zM.5 39.721a.5.5 0 0 1-.353-.854l34.03-38.1a.501.501 0 0 1 .707.71l-34.03 38.1a.5.5 0 0 1-.354.144"/><path fill="#2b1f51" d="M34.028 6.036a.5.5 0 0 1-.288-.09.5.5 0 0 1-.2-.522l.956-4.279-4.465.922a.5.5 0 1 1-.2-.978L35.054.01a.48.48 0 0 1 .458.138.5.5 0 0 1 .132.46L34.52 5.642a.5.5 0 0 1-.49.394"/></svg>
